assets/spark/icons/FireFill.svg

<svg viewBox="0 0 24 24" xmlns="http://www.w3.org/2000/svg">
    <path d="M11.2694 2.16202C11.0248 2.08113 10.7802 2.00024 10.5356 2.00024C10.2909 2.00024 9.96479 2.08113 9.72017 2.24291L9.63863 2.3238C9.39401 2.48557 9.23093 2.72824 9.14939 3.05179C9.06785 3.37534 9.14939 3.6989 9.31247 3.94156C10.1279 5.31666 10.5356 6.85354 10.5356 8.30952C10.5356 9.44196 10.2909 10.4126 9.80171 11.2215C9.31247 10.7362 8.98632 10.0891 8.66016 9.44196C8.57862 9.28018 8.41554 9.03752 8.08938 8.95663C7.76322 8.87574 7.5186 8.87574 7.27398 9.03752C6.21397 9.60374 5.39857 10.4126 4.8278 11.4642C4.25702 12.5157 3.93086 13.6481 4.0124 14.7806C4.0124 15.7512 4.25702 16.7219 4.74626 17.6926C5.15395 18.5823 5.80627 19.3912 6.54013 20.0383C7.27398 20.6854 8.17092 21.2516 9.14939 21.5752C10.1279 21.8987 11.1063 22.0605 12.0848 21.9796C14.531 21.9796 16.488 21.1707 17.8741 19.8765C19.2603 18.5823 19.9126 16.7219 19.9942 14.7806C20.1572 10.17 16.8957 4.75044 11.2694 2.16202ZM11.7587 17.5308C11.7587 16.9646 12.1664 16.5601 12.7371 16.5601C13.2264 16.5601 13.7156 16.3983 14.0418 15.9939C14.3679 15.6703 14.6125 15.185 14.6125 14.6997C14.6125 14.1335 15.0202 13.729 15.591 13.729C16.1618 13.729 16.5695 14.1335 16.5695 14.6997C16.5695 15.6704 16.1618 16.641 15.4279 17.369C14.6941 18.097 13.7972 18.5014 12.7371 18.5014C12.1664 18.5014 11.7587 18.097 11.7587 17.5308Z"/><path d="M12.7371 18.5014C13.7156 18.5014 14.6941 18.097 15.4279 17.369C16.1618 16.641 16.5695 15.7512 16.5695 14.6997C16.5695 14.1335 16.1618 13.729 15.591 13.729C15.0202 13.729 14.6125 14.1335 14.6125 14.6997C14.6125 15.185 14.4495 15.6703 14.0418 15.9939C13.7156 16.3175 13.2264 16.5601 12.7371 16.5601C12.1664 16.5601 11.7587 16.9646 11.7587 17.5308C11.7587 18.097 12.1664 18.5014 12.7371 18.5014Z"/>
</svg>

<svg viewBox="0 0 24 24" xmlns="http://www.w3.org/2000/svg">
  <path d="m11.27,2.16c-.24-.08-.49-.16-.73-.16s-.57.08-.82.24l-.08.08c-.24.16-.41.4-.49.73s0,.65.16.89c.82,1.38,1.22,2.91,1.22,4.37,0,1.13-.24,2.1-.73,2.91-.49-.49-.82-1.13-1.14-1.78-.08-.16-.24-.4-.57-.49-.33-.08-.57-.08-.82.08-1.06.57-1.88,1.38-2.45,2.43-.57,1.05-.9,2.18-.82,3.32,0,.97.24,1.94.73,2.91.41.89,1.06,1.7,1.79,2.35.73.65,1.63,1.21,2.61,1.54.98.32,1.96.49,2.94.4,2.45,0,4.4-.81,5.79-2.1,1.39-1.29,2.04-3.15,2.12-5.1.16-4.61-3.1-10.03-8.72-12.62Zm.49,15.37c0-.57.41-.97.98-.97.49,0,.98-.16,1.3-.57.33-.32.57-.81.57-1.29,0-.57.41-.97.98-.97s.98.4.98.97c0,.97-.41,1.94-1.14,2.67-.73.73-1.63,1.13-2.69,1.13-.57,0-.98-.4-.98-.97Z"/>
  <path d="m12.74,18.5c.98,0,1.96-.4,2.69-1.13.73-.73,1.14-1.62,1.14-2.67,0-.57-.41-.97-.98-.97s-.98.4-.98.97c0,.49-.16.97-.57,1.29-.33.32-.82.57-1.3.57-.57,0-.98.4-.98.97s.41.97.98.97Z"/>
</svg>
